icons/solid/chart-bar.svg

<svg width="24" height="24" viewBox="0 0 24 24" fill="none" xmlns="http://www.w3.org/2000/svg">
<path fill-rule="evenodd" clip-rule="evenodd" d="M18 4C17.4477 4 17 4.44772 17 5V19C17 19.5523 17.4477 20 18 20H20C20.5523 20 21 19.5523 21 19V5C21 4.44772 20.5523 4 20 4H18ZM10 11C10 10.4477 10.4477 10 11 10H13C13.5523 10 14 10.4477 14 11V19C14 19.5523 13.5523 20 13 20H11C10.4477 20 10 19.5523 10 19V11ZM3 17C3 16.4477 3.44772 16 4 16H6C6.55228 16 7 16.4477 7 17V19C7 19.5523 6.55228 20 6 20H4C3.44772 20 3 19.5523 3 19V17Z" fill="currentColor"/>
<path d="M18 5V3C16.8954 3 16 3.89543 16 5H18ZM18 19V5H16V19H18ZM18 19H16C16 20.1046 16.8954 21 18 21V19ZM20 19H18V21H20V19ZM20 19V21C21.1046 21 22 20.1046 22 19H20ZM20 5V19H22V5H20ZM20 5H22C22 3.89543 21.1046 3 20 3V5ZM18 5H20V3H18V5ZM11 9C9.89543 9 9 9.89543 9 11H11V9ZM13 9H11V11H13V9ZM15 11C15 9.89543 14.1046 9 13 9V11H15ZM15 19V11H13V19H15ZM13 21C14.1046 21 15 20.1046 15 19H13V21ZM11 21H13V19H11V21ZM9 19C9 20.1046 9.89543 21 11 21V19H9ZM9 11V19H11V11H9ZM4 15C2.89543 15 2 15.8954 2 17H4V15ZM6 15H4V17H6V15ZM8 17C8 15.8954 7.10457 15 6 15V17H8ZM8 19V17H6V19H8ZM6 21C7.10457 21 8 20.1046 8 19H6V21ZM4 21H6V19H4V21ZM2 19C2 20.1046 2.89543 21 4 21V19H2ZM2 17V19H4V17H2Z" fill="currentColor"/>
</svg>

<svg width="24" height="24" fill="none" xmlns="http://www.w3.org/2000/svg"><path fill-rule="evenodd" clip-rule="evenodd" d="M18 4a1 1 0 00-1 1v14a1 1 0 001 1h2a1 1 0 001-1V5a1 1 0 00-1-1h-2zm-8 7a1 1 0 011-1h2a1 1 0 011 1v8a1 1 0 01-1 1h-2a1 1 0 01-1-1v-8zm-7 6a1 1 0 011-1h2a1 1 0 011 1v2a1 1 0 01-1 1H4a1 1 0 01-1-1v-2z" fill="currentColor"/><path d="M18 5V3a2 2 0 00-2 2h2zm0 14V5h-2v14h2zm0 0h-2a2 2 0 002 2v-2zm2 0h-2v2h2v-2zm0 0v2a2 2 0 002-2h-2zm0-14v14h2V5h-2zm0 0h2a2 2 0 00-2-2v2zm-2 0h2V3h-2v2zm-7 4a2 2 0 00-2 2h2V9zm2 0h-2v2h2V9zm2 2a2 2 0 00-2-2v2h2zm0 8v-8h-2v8h2zm-2 2a2 2 0 002-2h-2v2zm-2 0h2v-2h-2v2zm-2-2a2 2 0 002 2v-2H9zm0-8v8h2v-8H9zm-5 4a2 2 0 00-2 2h2v-2zm2 0H4v2h2v-2zm2 2a2 2 0 00-2-2v2h2zm0 2v-2H6v2h2zm-2 2a2 2 0 002-2H6v2zm-2 0h2v-2H4v2zm-2-2a2 2 0 002 2v-2H2zm0-2v2h2v-2H2z" fill="currentColor"/></svg>
